Obsidian/status/16s/btsync-gui-2.svg

<svg height="16" width="16" xmlns="http://www.w3.org/2000/svg"><path d="m8.0000001.99999995c-3.8657501-.00000003-7 3.13424995-7 7.00000005-.0000001 3.86575 3.1342498 7 6.9999999 7 3.86575 0 7.000001-3.13425 7-7 0-3.8657501-3.13425-7.00000005-6.9999999-7.00000005zm0 2.00000005c2.4190029-.0000001 4.4371699 1.7176959 4.9003909 3.9999999h1.099609l-1.999999 3.0000001-2.000001-3 .816406-.0000002c-.413124-1.1628047-1.5118953-1.9999999-2.8164059-1.9999999-.7135101.0012568-1.4032123.2567791-1.9453125.7207031l-1.7910156-1.0332031c.9469761-1.070712 2.3069291-1.6849302 3.7363281-1.6874999zm-4.0000001 2.9999999 2.0000001 3-.8164064.0000005c.4131242 1.1628046 1.5118956 1.9999996 2.8164065 1.9999996.7135093-.001256 1.4032123-.256779 1.9453132-.720703l1.7910146 1.033203c-.946976 1.070712-2.3069287 1.6849-3.7363279 1.6875-2.4190033.000001-4.4371695-1.717696-4.9003909-3.9999993l-1.099609-.0000008z" fill="#d3dae3"/></svg>

<svg xmlns="http://www.w3.org/2000/svg" width="16" height="16" version="1.1">
 <defs>
  <style id="current-color-scheme" type="text/css">
   .ColorScheme-Text { color:#d3dae3; } .ColorScheme-Highlight { color:#5294e2; }
  </style>
 </defs>
 <path style="fill:currentColor" class="ColorScheme-Text" d="m 8.0000001,0.99999995 c -3.8657501,-3e-8 -7,3.13424995 -7,7.00000005 C 1,11.86575 4.1342499,15 8,15 11.86575,15 15.000001,11.86575 15,8 15,4.1342499 11.86575,0.99999995 8.0000001,0.99999995 Z M 8.0000001,3 c 2.4190029,-10e-8 4.4371699,1.7176959 4.9003909,3.9999999 L 14,6.9999999 12.000001,10 10,7 l 0.816406,-2e-7 C 10.403282,5.8371951 9.3045107,4.9999999 8.0000001,4.9999999 7.28649,5.0012567 6.5967878,5.256779 6.0546876,5.720703 L 4.263672,4.6874999 C 5.2106481,3.6167879 6.5706011,3.0025697 8.0000001,3 Z M 4,5.9999999 l 2.0000001,3 -0.8164064,5e-7 C 5.5967179,10.162805 6.6954893,11 8.0000002,11 8.7135095,10.998744 9.4032125,10.743221 9.9453134,10.279297 L 11.736328,11.3125 C 10.789352,12.383212 9.4293993,12.9974 8.0000001,13 5.5809968,13.000001 3.5628306,11.282304 3.0996092,9.0000007 l -1.099609,-8e-7 1.9999998,-3 z"/>
</svg>
